packages/kaspersky-hexa-ui-icons/src/iconsSVGs/16/StatusDangerSolid1.svg

<svg width="16" height="16" viewBox="0 0 16 16" fill="none" xmlns="http://www.w3.org/2000/svg">
<path fill-rule="evenodd" clip-rule="evenodd" d="M4 2C2.89543 2 2 2.89543 2 4V12C2 13.1046 2.89543 14 4 14H12C13.1046 14 14 13.1046 14 12V4C14 2.89543 13.1046 2 12 2H4ZM8 4.44336C8.41421 4.44336 8.75 4.77915 8.75 5.19336V8.10339C8.75 8.51761 8.41421 8.85339 8 8.85339C7.58579 8.85339 7.25 8.51761 7.25 8.10339V5.19336C7.25 4.77915 7.58579 4.44336 8 4.44336ZM8.8499 10.7182C8.8499 11.1876 8.46934 11.5682 7.9999 11.5682C7.53046 11.5682 7.1499 11.1876 7.1499 10.7182C7.1499 10.2487 7.53046 9.86816 7.9999 9.86816C8.46934 9.86816 8.8499 10.2487 8.8499 10.7182Z" fill="black"/>
</svg>

<svg xmlns="http://www.w3.org/2000/svg" width="16" height="16" fill="none" viewBox="0 0 16 16"><path fill="#000" fill-rule="evenodd" d="M4 2c-1.1046 0-2 .8954-2 2v8c0 1.1046.8954 2 2 2h8c1.1046 0 2-.8954 2-2V4c0-1.1046-.8954-2-2-2zm4 2.4434a.75.75 0 0 1 .75.75v2.91a.75.75 0 1 1-1.5 0v-2.91a.75.75 0 0 1 .75-.75m.8499 6.2748a.85.85 0 1 1-1.7 0 .85.85 0 0 1 1.7 0" clip-rule="evenodd"/></svg>
